X:1
T:Campbell's Farewell to Redcastle  "CCPB Sep-1995"
M:C|
L:1/8
Q:80
C:
S:March
K:HP
|: e | \
{g}A3/2B/2{GdG}c{Gdc}d | \
{gef}ea{ef}e3/2d/2 | \
{gcd}c{e}A{GAG}A{g}B3/4c/4 |
{Gdc}d3/2B/2{g}G{d}B | \
{g}A3/2B/2{GdG}c{Gdc}d | \
{gef}ea{ef}e3/2d/2 |
{gcd}c{g}B/4{d}A3/4{g}G{d}B | \
{g}A2{GAG}A :: \
g3/4f/4 |
{gef}ea{g}ag3/4f/4 | \
{gef}ea{ef}e3/2d/2 | \
{gcd}c{e}A{GAG}A{g}B3/4c/4 |
{Gdc}d3/2B/2|1 {g}Gg3/4f/4|2 {g}G{d}B|1
{gef}ea{g}ag3/4f/4 | \
{gef}ea{ef}e3/2d/2 |
{gcd}c{g}B/4{d}A3/4{g}G{d}B | \
{g}A2{GAG}A:|2
{g}A3/4B/4{g}c3/4d/4{g}c3/4d/4{g}e3/4f/4 |
{g}e3/4f/4{a}g/4a3/4{ef}e3/2d/2 | \
{gcd}c{g}B/4{d}A3/4{g}G{d}B | \
{g}A2{GAG}A :|
